X: 42563
T: When Sick Is It Tea That You Want?
R: jig
M: 6/8
K: Dmajor
Add dcB|AFB AFG|Add cde|fdB BAF|
Add dcB|AFB AFG|Add cde|fdc d3|
Add dcB|AFB AFG|A/c/A/ cde|fdB BAF|
Add dcB|AFB AFG|A/c/A/ cde|fdc d e/f/g/|
afd dcd|BGF G2 g|bge edd|cAA AFG|
Add fdB|AFB AFG|Add cde|fdc d3|
afd dcd|BGF G2 g|bge edd|cAA AFG|
Add fdB|AFB AFG|A/c/A/ A cde|fdc d3:|

